X: 581
T: Qia suantai
L: 1/8
M: 2/4
K: A
A cB2 [I:setbarnb 1]| 
A cB2 | 
A Bc2 | 
A CE2 | 
e e f f | 
B B/ c/A2 | 
F E/ F/ F C/ B,/ | 
A,4 |]

@@@ Tune index: 9455
